src/images/badges/first-contribution-small.svg

<svg width="40" height="20" viewBox="0 0 40 20" fill="none" xmlns="http://www.w3.org/2000/svg">
<path d="M39 10C39 5.02944 34.9706 1 30 1H10C5.02944 1 1 5.02944 1 10C1 14.9706 5.02944 19 10 19H30C34.9706 19 39 14.9706 39 10Z" fill="#41E847"/>
<path d="M5.4054 10.9972V6.78912C5.4054 6.52156 5.55134 6.37561 5.77026 6.37561C5.98918 6.37561 6.13513 6.52156 6.13513 6.78912V10.9972C6.13513 12.408 6.74323 12.9675 7.74053 12.9675C8.76215 12.9675 9.37026 12.3837 9.37026 10.9972V6.78912C9.37026 6.52156 9.51621 6.37561 9.73513 6.37561C9.95404 6.37561 10.1 6.52156 10.1 6.78912V10.9972C10.1 12.6513 9.34594 13.6729 7.74053 13.6729C6.15945 13.6729 5.4054 12.6513 5.4054 10.9972Z" fill="black"/>
<path fill-rule="evenodd" clip-rule="evenodd" d="M13.8703 7.12976C15.7189 7.12976 17.1297 8.54057 17.1297 10.3649C17.1297 12.1892 15.7189 13.6 13.8703 13.6C12.0216 13.6 10.6351 12.1892 10.6351 10.3649C10.6351 8.54057 12.0216 7.12976 13.8703 7.12976ZM15.3297 11.7514C15.3297 11.5811 15.2081 11.4595 14.9892 11.4595C14.9455 11.4595 14.8575 11.4644 14.7607 11.4698C14.6421 11.4764 14.5101 11.4838 14.4297 11.4838V8.90544C14.4297 8.73517 14.3081 8.61354 14.1135 8.61354C13.9919 8.61354 13.8946 8.66217 13.7487 8.73512L12.8486 9.173C12.7027 9.24598 12.6297 9.34327 12.6297 9.4649C12.6297 9.61084 12.7513 9.73246 12.9216 9.73246C13.0189 9.73246 13.1649 9.68381 13.3351 9.58652L13.8216 9.31895V11.5081C13.7851 11.5081 13.6027 11.502 13.4202 11.4959C13.2378 11.4899 13.0554 11.4838 13.0189 11.4838C12.7757 11.4838 12.6541 11.6054 12.6541 11.7757C12.6541 11.946 12.7757 12.0433 13.0189 12.0433H15.0135C15.2081 12.019 15.3297 11.9217 15.3297 11.7514Z" fill="black"/>
<path d="M18.127 13.1135C17.9324 13.1135 17.8108 13.2838 17.8108 13.454C17.8108 13.7216 18.0784 13.8189 18.3703 13.8189C19.1973 13.8189 19.6838 13.3081 20.0973 12.7486C20.5108 13.3081 20.9973 13.8189 21.8243 13.8189C22.1405 13.8189 22.4081 13.7459 22.4081 13.454C22.4081 13.2838 22.2621 13.1135 22.0675 13.1135C22.0311 13.1135 21.9764 13.1196 21.9216 13.1256C21.8669 13.1317 21.8121 13.1378 21.7757 13.1378C21.3865 13.1378 20.9 12.627 20.6567 12.2621C21.1675 11.7027 21.7513 10.973 21.7513 10.1946C21.7513 9.27025 21.0459 8.63782 20.0973 8.63782C19.1486 8.63782 18.4432 9.27025 18.4432 10.1946C18.4432 10.973 19.027 11.7027 19.5378 12.2621C19.2703 12.627 18.8081 13.1378 18.4189 13.1378C18.3824 13.1378 18.3277 13.1317 18.2729 13.1257C18.2182 13.1196 18.1635 13.1135 18.127 13.1135Z" fill="black"/>
<path fill-rule="evenodd" clip-rule="evenodd" d="M26.2271 7.12976C28.0757 7.12976 29.4865 8.54057 29.4865 10.3649C29.4865 12.1892 28.0757 13.6 26.2271 13.6C24.3784 13.6 22.9919 12.1892 22.9919 10.3649C22.9919 8.54057 24.3784 7.12976 26.2271 7.12976ZM27.6622 11.7514C27.6622 11.5811 27.5406 11.4595 27.3217 11.4595C27.278 11.4595 27.19 11.4644 27.0932 11.4698C26.9746 11.4764 26.8426 11.4838 26.7622 11.4838V8.90544C26.7622 8.73517 26.6406 8.61354 26.446 8.61354C26.3244 8.61354 26.2271 8.66217 26.0812 8.73512L25.1811 9.173C25.0352 9.24598 24.9622 9.34327 24.9622 9.4649C24.9622 9.61084 25.0838 9.73246 25.2541 9.73246C25.3514 9.73246 25.4973 9.68381 25.6676 9.58652L26.1541 9.31895V11.5081C26.1176 11.5081 25.9352 11.502 25.7528 11.4959C25.5703 11.4899 25.3879 11.4838 25.3514 11.4838C25.1082 11.4838 24.9865 11.6054 24.9865 11.7757C24.9865 11.946 25.1082 12.0433 25.3514 12.0433H27.346C27.5406 12.019 27.6622 11.9217 27.6622 11.7514Z" fill="black"/>
<path d="M30.0946 6.78912V10.9972C30.0946 12.6513 30.8487 13.6729 32.4297 13.6729C34.0351 13.6729 34.7892 12.6513 34.7892 10.9972V6.78912C34.7892 6.52156 34.6433 6.37561 34.4243 6.37561C34.2054 6.37561 34.0595 6.52156 34.0595 6.78912V10.9972C34.0595 12.3837 33.4514 12.9675 32.4297 12.9675C31.4324 12.9675 30.8243 12.408 30.8243 10.9972V6.78912C30.8243 6.52156 30.6784 6.37561 30.4595 6.37561C30.2406 6.37561 30.0946 6.52156 30.0946 6.78912Z" fill="black"/>
</svg>

<svg xmlns="http://www.w3.org/2000/svg" width="40" height="20" fill="none"><path fill="#41E847" d="M39 10a9 9 0 0 0-9-9H10a9 9 0 0 0 0 18h20a9 9 0 0 0 9-9Z"/><path fill="#000" d="M5.405 10.997V6.79c0-.267.146-.413.365-.413.22 0 .365.146.365.413v4.208c0 1.411.608 1.97 1.606 1.97 1.021 0 1.63-.583 1.63-1.97V6.79c0-.267.145-.413.364-.413s.365.146.365.413v4.208c0 1.654-.754 2.676-2.36 2.676-1.58 0-2.335-1.022-2.335-2.676Z"/><path fill="#000" fill-rule="evenodd" d="M13.87 7.13c1.849 0 3.26 1.41 3.26 3.235 0 1.824-1.411 3.235-3.26 3.235-1.848 0-3.235-1.41-3.235-3.235 0-1.824 1.387-3.235 3.235-3.235Zm1.46 4.621c0-.17-.122-.291-.34-.291a5.63 5.63 0 0 0-.23.01c-.118.006-.25.014-.33.014V8.905c0-.17-.122-.291-.316-.291-.122 0-.22.048-.365.121l-.9.438c-.146.073-.22.17-.22.292 0 .146.122.267.293.267.097 0 .243-.048.413-.145l.487-.268v2.19c-.037 0-.22-.007-.402-.013-.182-.006-.365-.012-.401-.012-.243 0-.365.121-.365.292 0 .17.122.267.365.267h1.995c.194-.024.316-.121.316-.292Z" clip-rule="evenodd"/><path fill="#000" d="M18.127 13.114c-.195 0-.316.17-.316.34 0 .268.267.365.56.365.826 0 1.313-.51 1.726-1.07.414.56.9 1.07 1.727 1.07.316 0 .584-.073.584-.365 0-.17-.146-.34-.34-.34-.037 0-.092.006-.146.012-.055.006-.11.012-.146.012-.39 0-.876-.511-1.12-.876.512-.56 1.095-1.289 1.095-2.067 0-.925-.705-1.557-1.654-1.557-.948 0-1.654.632-1.654 1.557 0 .778.584 1.508 1.095 2.067-.268.365-.73.876-1.12.876-.036 0-.09-.006-.145-.012-.055-.006-.11-.012-.146-.012Z"/><path fill="#000" fill-rule="evenodd" d="M26.227 7.13c1.849 0 3.26 1.41 3.26 3.235 0 1.824-1.411 3.235-3.26 3.235-1.849 0-3.235-1.41-3.235-3.235 0-1.824 1.386-3.235 3.235-3.235Zm1.435 4.621c0-.17-.121-.291-.34-.291a5.63 5.63 0 0 0-.229.01c-.118.006-.25.014-.33.014V8.905c0-.17-.122-.291-.317-.291-.122 0-.219.048-.365.121l-.9.438c-.146.073-.219.17-.219.292 0 .146.122.267.292.267.097 0 .243-.048.414-.145l.486-.268v2.19c-.036 0-.219-.007-.401-.013-.183-.006-.365-.012-.402-.012-.243 0-.364.121-.364.292 0 .17.121.267.364.267h1.995c.195-.024.316-.121.316-.292Z" clip-rule="evenodd"/><path fill="#000" d="M30.095 6.79v4.207c0 1.654.754 2.676 2.335 2.676 1.605 0 2.36-1.022 2.36-2.676V6.79c0-.267-.147-.413-.366-.413s-.364.146-.364.413v4.208c0 1.387-.609 1.97-1.63 1.97-.998 0-1.606-.559-1.606-1.97V6.79c0-.267-.146-.413-.365-.413-.218 0-.364.146-.364.413Z"/></svg>
